images/social/pinterest.svg

<svg xmlns="http://www.w3.org/2000/svg" width="219.01" height="220.43" viewBox="0 0 219.01 220.43"><defs><style>.a{fill:#fff;}</style></defs><title>pinterest</title><path class="a" d="M38.46,27.4A110.78,110.78,0,0,1,107,.59a109.89,109.89,0,0,1,110,87c1.46,6.68,1.81,13.53,2.56,20.31-.12,20-4.85,40.24-15.18,57.52A109.89,109.89,0,0,1,141,215.21c-10.13,3.14-20.73,4.12-31.26,4.85L111,221h-.23a12.2,12.2,0,0,0-5.76-1.43,114.43,114.43,0,0,1-25.79-4.28,84.73,84.73,0,0,0,11.76-26.22c2.22-8.92,4.66-17.78,6.71-26.74,5.64,8.73,16.28,13.17,26.42,13.24a51.65,51.65,0,0,0,36.48-14c12-11,18.89-26.64,21.57-42.5,2-12.23,2.74-25.12-1.26-37-4.65-14.52-15.06-26.92-28.11-34.68a73.22,73.22,0,0,0-39.73-10C88.77,36.93,63.71,47.15,49.11,67,38.21,81.39,33,100.41,36.73,118.25c1.75,10.53,7,20.95,16.08,27,2.55,1.57,5.27,3.43,8.4,3.32,2.6-1.23,3-4.29,3.7-6.74.64-2.94,1.83-5.87,1.58-8.91-1.51-2.82-3.83-5.12-5.32-7.95a34.72,34.72,0,0,1-3.74-17c.16-14.88,6.71-29.74,18.19-39.32C85.63,60.2,98.94,56,112,56.37c12.47-.07,25.6,4,34.23,13.35,7.3,7.81,10.58,18.73,10.34,29.28-.19,14.24-2.91,28.86-10.25,41.23-4.5,7.37-11.36,14.15-20.18,15.65a18.69,18.69,0,0,1-17.58-5.38,16.2,16.2,0,0,1-3.71-14.57c2.62-11.42,7.14-22.33,9.31-33.86,1-6,.71-12.9-3.48-17.7-3.5-4.2-9.56-5.28-14.7-4.2-6.28,1.21-11.16,6.18-14,11.7-4.95,10-4.65,22-.87,32.4.84,1.88,0,3.89-.34,5.78-4.34,18-8.49,36-12.76,54-2.14,8.63-2.44,17.57-2.23,26.41a111.11,111.11,0,0,1-47.11-40,109.55,109.55,0,0,1,19.81-143Z" transform="translate(-0.55 -0.57)"/></svg>

<?xml version="1.0" encoding="UTF-8" ?>
<!DOCTYPE svg PUBLIC "-//W3C//DTD SVG 1.1//EN" "http://www.w3.org/Graphics/SVG/1.1/DTD/svg11.dtd">
<svg width="220pt" height="221pt" viewBox="0 0 220 221" version="1.1" xmlns="http://www.w3.org/2000/svg">
<g>
<path fill="#fff" opacity="1.00" d=" M 38.46 27.40 C 57.31 10.89 82.01 1.49 106.99 0.59 C 130.66 0.15 154.53 7.34 173.73 21.28 C 195.71 37.02 211.52 61.12 217.00 87.62 C 218.46 94.30 218.81 101.15 219.56 107.93 C 219.44 127.95 214.71 148.17 204.38 165.45 C 190.57 189.28 167.41 207.43 140.99 215.21 C 130.86 218.35 120.26 219.33 109.73 220.06 L 110.96 221.00 L 110.73 221.00 C 108.95 220.03 106.98 219.59 104.97 219.57 C 96.24 219.16 87.58 217.67 79.18 215.29 C 84.41 207.24 88.70 198.45 90.94 189.07 C 93.16 180.15 95.60 171.29 97.65 162.33 C 103.29 171.06 113.93 175.50 124.07 175.57 C 137.45 175.88 150.86 170.79 160.55 161.55 C 172.53 150.54 179.44 134.91 182.12 119.05 C 184.12 106.82 184.86 93.93 180.86 82.01 C 176.21 67.49 165.80 55.09 152.75 47.33 C 140.83 40.24 126.85 36.85 113.02 37.32 C 88.77 36.93 63.71 47.15 49.11 66.99 C 38.21 81.39 33.04 100.41 36.73 118.25 C 38.48 128.78 43.74 139.20 52.81 145.23 C 55.36 146.80 58.08 148.66 61.21 148.55 C 63.81 147.32 64.18 144.26 64.91 141.81 C 65.55 138.87 66.74 135.94 66.49 132.90 C 64.98 130.08 62.66 127.78 61.17 124.95 C 58.41 119.77 57.32 113.82 57.43 107.99 C 57.59 93.11 64.14 78.25 75.62 68.67 C 85.63 60.20 98.94 56.04 111.97 56.37 C 124.44 56.30 137.57 60.36 146.20 69.72 C 153.50 77.53 156.78 88.45 156.54 99.00 C 156.35 113.24 153.63 127.86 146.29 140.23 C 141.79 147.60 134.93 154.38 126.11 155.88 C 119.86 157.22 112.85 155.31 108.53 150.50 C 105.01 146.64 103.56 141.01 104.82 135.93 C 107.44 124.51 111.96 113.60 114.13 102.07 C 115.17 96.06 114.84 89.17 110.65 84.37 C 107.15 80.17 101.09 79.09 95.95 80.17 C 89.67 81.38 84.79 86.35 81.96 91.87 C 77.01 101.89 77.31 113.91 81.09 124.27 C 81.93 126.15 81.11 128.16 80.75 130.05 C 76.41 148.02 72.26 166.03 67.99 184.01 C 65.85 192.64 65.55 201.58 65.76 210.42 C 46.74 201.79 30.08 187.94 18.65 170.42 C 3.35 147.34 -2.81 118.25 2.32 91.01 C 6.47 66.46 19.64 43.65 38.46 27.40 Z" />
</g>
</svg>
